src/assets/text/TextLocation.svg

<svg width="20" height="20" viewBox="0 0 20 20" fill="none" xmlns="http://www.w3.org/2000/svg">
<path fill-rule="evenodd" clip-rule="evenodd" d="M4 8.36322C4 4.80064 6.73336 2 10 2C13.2666 2 16 4.80064 16 8.36322C16 10.8451 14.4811 13.2463 12.786 15.1289C11.9553 16.0515 11.119 16.8091 10.4839 17.3418C10.2883 17.5059 10.1123 17.6482 9.9621 17.767C9.83068 17.666 9.67889 17.5455 9.51082 17.4065C8.88233 16.8866 8.04792 16.1262 7.21748 15.1942C5.52278 13.292 4 10.8488 4 8.36322ZM9.27524 18.31C9.30514 18.2785 9.33571 18.2503 9.36659 18.2249C9.3635 18.2274 9.36022 18.2302 9.35681 18.2331L9.3561 18.2337C9.34926 18.2394 9.3141 18.2691 9.27524 18.31ZM10 0C5.53466 0 2 3.79261 2 8.36322C2 11.6046 3.93833 14.5201 5.72419 16.5246C6.63403 17.5458 7.54475 18.3757 8.23606 18.9476C8.58166 19.2334 8.87788 19.4593 9.09757 19.6155C9.20539 19.6921 9.30521 19.7594 9.38868 19.8102C9.42627 19.833 9.48397 19.867 9.54819 19.8972C9.57412 19.9093 9.64496 19.9421 9.73762 19.9664C9.7803 19.9776 9.8815 20.0019 10.0123 19.9998C10.1081 19.9984 10.3859 19.9806 10.6402 19.7674C10.6518 19.7587 10.6681 19.7465 10.6916 19.7288C10.7473 19.687 10.8292 19.6255 10.932 19.5466C11.1377 19.3887 11.4261 19.162 11.7692 18.8741C12.4539 18.2998 13.3627 17.4774 14.2723 16.4671C16.0578 14.4841 18 11.6082 18 8.36322C18 3.79261 14.4653 0 10 0ZM8.66667 8C8.66667 7.26362 9.26362 6.66667 10 6.66667C10.7364 6.66667 11.3333 7.26362 11.3333 8C11.3333 8.73638 10.7364 9.33333 10 9.33333C9.26362 9.33333 8.66667 8.73638 8.66667 8ZM10 4.66667C8.15905 4.66667 6.66667 6.15905 6.66667 8C6.66667 9.84095 8.15905 11.3333 10 11.3333C11.8409 11.3333 13.3333 9.84095 13.3333 8C13.3333 6.15905 11.8409 4.66667 10 4.66667Z" fill="#333333"/>
</svg>

<svg xmlns="http://www.w3.org/2000/svg" width="20" height="20" fill="none"><path fill="#333" fill-rule="evenodd" d="M4 8.363C4 4.801 6.733 2 10 2s6 2.8 6 6.363c0 2.482-1.519 4.883-3.214 6.766a23.163 23.163 0 0 1-2.824 2.638 16.243 16.243 0 0 1-.451-.36 21.45 21.45 0 0 1-2.294-2.213C5.523 13.292 4 10.85 4 8.364m5.275 9.947c.03-.031.06-.06.092-.085l-.01.008a1.02 1.02 0 0 0-.082.077M10 0C5.535 0 2 3.793 2 8.363c0 3.242 1.938 6.157 3.724 8.162a23.445 23.445 0 0 0 2.512 2.423c.346.285.642.511.862.668.107.076.207.143.29.194.038.023.096.057.16.087.026.012.097.045.19.07a1.018 1.018 0 0 0 .902-.2l.052-.038a26.527 26.527 0 0 0 1.077-.855 25.154 25.154 0 0 0 2.503-2.407C16.058 14.484 18 11.608 18 8.363 18 3.793 14.465 0 10 0M8.667 8a1.333 1.333 0 1 1 2.666 0 1.333 1.333 0 0 1-2.666 0M10 4.667a3.333 3.333 0 1 0 0 6.666 3.333 3.333 0 0 0 0-6.666" clip-rule="evenodd"/></svg>
